packages/tokens/icons/chartArrow/size32Px.svg

<svg viewBox="0 0 32 32" fill="none" xmlns="http://www.w3.org/2000/svg" width="1em" height="1em"><rect x="5.5" y="17.5" width="5" height="12" rx="1.5" stroke="currentColor"/><rect x="13.5" y="13.5" width="5" height="16" rx="1.5" stroke="currentColor"/><path d="M28 10.5L29.1134 10.5L28.3737 9.66782L25.1211 6.00865C24.5244 5.33738 23.4756 5.33738 22.8789 6.00865L19.6263 9.66782L18.8866 10.5H20H21C21.2761 10.5 21.5 10.7239 21.5 11L21.5 28C21.5 28.8284 22.1716 29.5 23 29.5H25C25.8284 29.5 26.5 28.8284 26.5 28L26.5 11C26.5 10.7239 26.7239 10.5 27 10.5H28Z" stroke="currentColor" stroke-linejoin="round"/></svg>

<svg xmlns="http://www.w3.org/2000/svg" fill="none" viewBox="0 0 32 32" width="1em" height="1em"><rect width="5" height="12" x="5.5" y="17.5" stroke="currentColor" rx="1.5"/><rect width="5" height="16" x="13.5" y="13.5" stroke="currentColor" rx="1.5"/><path stroke="currentColor" stroke-linejoin="round" d="M28 10.5h1.113l-.74-.832-3.252-3.66a1.5 1.5 0 0 0-2.242 0l-3.253 3.66-.74.832H21a.5.5 0 0 1 .5.5v17a1.5 1.5 0 0 0 1.5 1.5h2a1.5 1.5 0 0 0 1.5-1.5V11a.5.5 0 0 1 .5-.5h1Z"/></svg>
